X: 3331
T: Belles Of Liscarroll, The
R: jig
M: 6/8
K: Dmixolydian
|:DE|F3 DGG|DEF E/F/ED|~F3 GFG|AFD D2 E|
~F3 ~G3|AGA e/f/ed|ecA GFE|FDD D:|
|:AB|c3 dcd|ecA AGE|c2 A dcA|AGF GAB|
~c3 dcd|e/f/ed eag|edc ABc|BA^G A:|
|:B^c|~d3 AFA|GAG FED|ded AFA|GFE DFA|
~d3 AFA|DFA e/f/ed|ecA GFE|FDD D:|
|:B^c|dFF AFF|dFF AFA|FGE cEE|GFE GFE|
~d2 F AFA|DFA e/f/ed|ecA GFE|FDD D:|

